svg/u1f455.svg

<svg viewBox="0 0 128 128" xmlns="http://www.w3.org/2000/svg">
  <g>
    <path d="M122.9,34.04c0,0-16.33-14.01-25.99-18.59c-6.68-3.16-16.63-4.73-17.18-4.73 c0,0-4.86,2.44-15.73,2.44s-15.73-2.44-15.73-2.44c-0.55,0-10.5,1.56-17.18,4.73C21.42,20.02,5.1,34.04,5.1,34.04 c-0.56,0.44-0.78,1.17-0.56,1.85c1.05,3.26,4.55,13.43,14.75,21.3c0.62,0.48,1.5,0.45,2.11-0.05c2.54-2.14,10.42-7.01,10.42-7.01 l-0.71,61.01c-0.09,0.75,0.29,1.49,0.96,1.83c2.89,1.49,13.06,5.01,31.94,5.01s29.05-3.53,31.94-5.01 c0.67-0.35,1.05-1.08,0.96-1.83l-0.71-61.01c0,0,7.88,4.88,10.42,7.01c0.6,0.51,1.48,0.54,2.11,0.05 c10.2-7.88,13.7-18.04,14.75-21.3C123.68,35.21,123.46,34.48,122.9,34.04z" fill="#B7E4EA"/>
    <path d="M47.54,12.42c0,0,2.47,13.36,16.05,13.35c16.7-0.01,17.78-13.98,17.78-13.98s-9.83,2.94-17.24,2.94 S47.54,12.42,47.54,12.42z" fill="#75C6D3"/>
    <g>
      <path d="M63.59,16.73c-4.92,0-10.11-0.97-13.47-1.75l-2.09-4.84c0.09,0.03,8.29,2.28,15.62,2.28 c7.37,0,16.27-2.27,16.37-2.31l-1.61,4.72C74.86,15.61,68.87,16.73,63.59,16.73z" fill="#0288D1"/>
      <path d="M51.7,11c-2.49-0.5-3.62-0.85-3.66-0.86l2.2,4.86c0.47,0.11,1.44,0.32,2.06,0.45 C51.74,13.85,51.55,12.44,51.7,11z" fill="#01579B"/>
      <path d="M75.05,15.51c1-0.19,2.25-0.45,3.27-0.67l1.7-4.73c-0.04,0.01-1.33,0.34-3.31,0.75 C76.5,12.42,75.73,14.13,75.05,15.51z" fill="#01579B"/>
      <path d="M63.45,28.24c-11.86,0-18.23-9.92-19.84-16.37c0,0-0.24-0.52,0.45-0.75 c0.51-0.17,2.6-0.87,3.52-1.06c0.33-0.07,0.65,0.12,0.76,0.45c0.87,2.51,4.99,12.76,15.97,12.76c11.11,0,14.64-10.09,15.35-12.73 c0.09-0.36,0.43-0.57,0.78-0.5c0.95,0.2,2.98,0.94,3.47,1.12c0.61,0.23,0.47,0.67,0.47,0.67c-0.95,6.27-6.01,16.4-20.92,16.41 C63.46,28.24,63.46,28.24,63.45,28.24z" fill="#29B6F6"/>
    </g>
    <g>
      <path d="M120.52,31.92c-0.12-0.1-0.3-0.04-0.34,0.11c-0.32,1.31-1.81,6.49-6.29,12.95 c-3.88,5.6-8.2,9.64-9.14,10.49c-0.1,0.09-0.09,0.24,0.02,0.32c0.46,0.36,1.56,1.22,1.87,1.44c0.4,0.27,0.63,0.37,1.02,0.37 c0.36,0,0.76-0.12,1.06-0.35c10.2-7.88,13.76-18.06,14.81-21.32c0.1-0.31,0.19-0.94-0.18-1.5C123,33.92,121.2,32.47,120.52,31.92 z" fill="#29B6F6"/>
      <path d="M7.48,31.92c0.12-0.1,0.3-0.04,0.34,0.11c0.32,1.31,1.81,6.49,6.29,12.95 c3.88,5.6,8.2,9.64,9.14,10.49c0.1,0.09,0.09,0.24-0.02,0.32c-0.46,0.36-1.56,1.22-1.87,1.44c-0.4,0.27-0.63,0.37-1.02,0.37 c-0.36,0-0.76-0.12-1.06-0.35C9.08,49.38,5.52,39.19,4.47,35.93c-0.1-0.31-0.19-0.94,0.18-1.5C5,33.92,6.8,32.47,7.48,31.92z" fill="#29B6F6"/>
    </g>
  </g>
</svg>

<svg viewBox="0 0 128 128" xmlns="http://www.w3.org/2000/svg">
  <defs/>
  <path d="M122.9,34.04 C122.9,34.04 106.57,20.03 96.91,15.45 C90.23,12.29 80.28,10.72 79.73,10.72 C79.73,10.72 74.87,13.16 64,13.16 C53.13,13.16 48.27,10.72 48.27,10.72 C47.72,10.72 37.77,12.28 31.09,15.45 C21.42,20.02 5.1,34.04 5.1,34.04 C4.54,34.48 4.32,35.21 4.54,35.89 C5.59,39.15 9.09,49.32 19.29,57.19 C19.91,57.67 20.79,57.64 21.4,57.14 C23.94,55 31.82,50.13 31.82,50.13 L31.11,111.14 C31.02,111.89 31.4,112.63 32.07,112.97 C34.96,114.46 45.13,117.98 64.01,117.98 C82.89,117.98 93.06,114.45 95.95,112.97 C96.62,112.62 97,111.89 96.91,111.14 L96.2,50.13 C96.2,50.13 104.08,55.01 106.62,57.14 C107.22,57.65 108.1,57.68 108.73,57.19 C118.93,49.31 122.43,39.15 123.48,35.89 C123.68,35.21 123.46,34.48 122.9,34.04 Z" fill="#B7E4EA"/>
  <path d="M47.54,12.42 C47.54,12.42 50.01,25.78 63.59,25.77 C80.29,25.76 81.37,11.79 81.37,11.79 C81.37,11.79 71.54,14.73 64.13,14.73 C56.72,14.73 47.54,12.42 47.54,12.42 Z" fill="#75C6D3"/>
  <path d="M63.59,16.73 C58.67,16.73 53.48,15.76 50.12,14.98 L48.03,10.14 C48.12,10.17 56.32,12.42 63.65,12.42 C71.02,12.42 79.92,10.15 80.02,10.11 L78.41,14.83 C74.86,15.61 68.87,16.73 63.59,16.73 Z" fill="#0288D1"/>
  <path d="M51.7,11 C49.21,10.5 48.08,10.15 48.04,10.14 L50.24,15 C50.71,15.11 51.68,15.32 52.3,15.45 C51.74,13.85 51.55,12.44 51.7,11 Z" fill="#01579B"/>
  <path d="M75.05,15.51 C76.05,15.32 77.3,15.06 78.32,14.84 L80.02,10.11 C79.98,10.12 78.69,10.45 76.71,10.86 C76.5,12.42 75.73,14.13 75.05,15.51 Z" fill="#01579B"/>
  <path d="M63.45,28.24 C51.59,28.24 45.22,18.32 43.61,11.87 C43.61,11.87 43.37,11.35 44.06,11.12 C44.57,10.95 46.66,10.25 47.58,10.06 C47.91,9.99 48.23,10.18 48.34,10.51 C49.21,13.02 53.33,23.27 64.31,23.27 C75.42,23.27 78.95,13.18 79.66,10.54 C79.75,10.18 80.09,9.97 80.44,10.04 C81.39,10.24 83.42,10.98 83.91,11.16 C84.52,11.39 84.38,11.83 84.38,11.83 C83.43,18.1 78.37,28.23 63.46,28.24 C63.46,28.24 63.46,28.24 63.45,28.24 Z" fill="#29B6F6"/>
  <path d="M120.52,31.92 C120.4,31.82 120.22,31.88 120.18,32.03 C119.86,33.34 118.37,38.52 113.89,44.98 C110.01,50.58 105.69,54.62 104.75,55.47 C104.65,55.56 104.66,55.71 104.77,55.79 C105.23,56.15 106.33,57.01 106.64,57.23 C107.04,57.5 107.27,57.6 107.66,57.6 C108.02,57.6 108.42,57.48 108.72,57.25 C118.92,49.37 122.48,39.19 123.53,35.93 C123.63,35.62 123.72,34.99 123.35,34.43 C123,33.92 121.2,32.47 120.52,31.92 Z" fill="#29B6F6"/>
  <path d="M7.48,31.92 C7.6,31.82 7.78,31.88 7.82,32.03 C8.14,33.34 9.63,38.52 14.11,44.98 C17.99,50.58 22.31,54.62 23.25,55.47 C23.35,55.56 23.34,55.71 23.23,55.79 C22.77,56.15 21.67,57.01 21.36,57.23 C20.96,57.5 20.73,57.6 20.34,57.6 C19.98,57.6 19.58,57.48 19.28,57.25 C9.08,49.38 5.52,39.19 4.47,35.93 C4.37,35.62 4.28,34.99 4.65,34.43 C5,33.92 6.8,32.47 7.48,31.92 Z" fill="#29B6F6"/>
</svg>
